static/img/kroki/6c056253be189164318d666fddc616ac.svg

<?xml version="1.0" encoding="us-ascii" standalone="no"?><svg xmlns="http://www.w3.org/2000/svg" xmlns:xlink="http://www.w3.org/1999/xlink" contentStyleType="text/css" height="374px" preserveAspectRatio="none" style="width:359px;height:374px;" version="1.1" viewBox="0 0 359 374" width="359px" zoomAndPan="magnify"><defs/><g><!--class azure_compute_ssh_public_key--><g id="elem_azure_compute_ssh_public_key"><rect codeLine="23" fill="#3D176E" height="39.7891" id="azure_compute_ssh_public_key" rx="2.5" ry="2.5" style="stroke:#000D19;stroke-width:0.5;" width="303" x="7" y="328.58"/><ellipse cx="22" cy="348.4745" fill="#ADD1B2" rx="11" ry="11" style="stroke:#181818;stroke-width:1.0;"/><path d="M24.9688,354.1152 Q24.3906,354.412 23.75,354.5527 Q23.1094,354.7089 22.4063,354.7089 Q19.9063,354.7089 18.5781,353.0683 Q17.2656,351.412 17.2656,348.287 Q17.2656,345.162 18.5781,343.5058 Q19.9063,341.8495 22.4063,341.8495 Q23.1094,341.8495 23.75,342.0058 Q24.4063,342.162 24.9688,342.4589 L24.9688,345.1777 Q24.3438,344.5995 23.75,344.3339 Q23.1563,344.0527 22.5313,344.0527 Q21.1875,344.0527 20.5,345.1308 Q19.8125,346.1933 19.8125,348.287 Q19.8125,350.3808 20.5,351.4589 Q21.1875,352.5214 22.5313,352.5214 Q23.1563,352.5214 23.75,352.2558 Q24.3438,351.9745 24.9688,351.3964 L24.9688,354.1152 Z " fill="#000000"/><text fill="#D9B8FF" font-family="Helvetica" font-size="17" lengthAdjust="spacing" textLength="261" x="41" y="354.3598">azure_compute_ssh_public_key</text></g><!--class keypair--><g id="elem_keypair"><rect codeLine="26" fill="#3D176E" height="39.7891" id="keypair" rx="2.5" ry="2.5" style="stroke:#000D19;stroke-width:0.5;" width="104" x="13.5" y="167.79"/><ellipse cx="28.5" cy="187.6845" fill="#ADD1B2" rx="11" ry="11" style="stroke:#181818;stroke-width:1.0;"/><path d="M31.4688,193.3252 Q30.8906,193.622 30.25,193.7627 Q29.6094,193.9189 28.9063,193.9189 Q26.4063,193.9189 25.0781,192.2783 Q23.7656,190.622 23.7656,187.497 Q23.7656,184.372 25.0781,182.7158 Q26.4063,181.0595 28.9063,181.0595 Q29.6094,181.0595 30.25,181.2158 Q30.9063,181.372 31.4688,181.6689 L31.4688,184.3877 Q30.8438,183.8095 30.25,183.5439 Q29.6563,183.2627 29.0313,183.2627 Q27.6875,183.2627 27,184.3408 Q26.3125,185.4033 26.3125,187.497 Q26.3125,189.5908 27,190.6689 Q27.6875,191.7314 29.0313,191.7314 Q29.6563,191.7314 30.25,191.4658 Q30.8438,191.1845 31.4688,190.6064 L31.4688,193.3252 Z " fill="#000000"/><text fill="#D9B8FF" font-family="Helvetica" font-size="17" lengthAdjust="spacing" textLength="62" x="47.5" y="193.5698">keypair</text></g><!--class microsoft_resource--><g id="elem_microsoft_resource"><rect codeLine="29" fill="#3D176E" height="39.7891" id="microsoft_resource" rx="2.5" ry="2.5" style="stroke:#000D19;stroke-width:0.5;" width="200" x="152.5" y="167.79"/><ellipse cx="167.5" cy="187.6845" fill="#ADD1B2" rx="11" ry="11" style="stroke:#181818;stroke-width:1.0;"/><path d="M170.4688,193.3252 Q169.8906,193.622 169.25,193.7627 Q168.6094,193.9189 167.9063,193.9189 Q165.4063,193.9189 164.0781,192.2783 Q162.7656,190.622 162.7656,187.497 Q162.7656,184.372 164.0781,182.7158 Q165.4063,181.0595 167.9063,181.0595 Q168.6094,181.0595 169.25,181.2158 Q169.9063,181.372 170.4688,181.6689 L170.4688,184.3877 Q169.8438,183.8095 169.25,183.5439 Q168.6563,183.2627 168.0313,183.2627 Q166.6875,183.2627 166,184.3408 Q165.3125,185.4033 165.3125,187.497 Q165.3125,189.5908 166,190.6689 Q166.6875,191.7314 168.0313,191.7314 Q168.6563,191.7314 169.25,191.4658 Q169.8438,191.1845 170.4688,190.6064 L170.4688,193.3252 Z " fill="#000000"/><text fill="#D9B8FF" font-family="Helvetica" font-size="17" lengthAdjust="spacing" textLength="158" x="186.5" y="193.5698">microsoft_resource</text></g><!--class resource--><g id="elem_resource"><rect codeLine="32" fill="#3D176E" height="39.7891" id="resource" rx="2.5" ry="2.5" style="stroke:#000D19;stroke-width:0.5;" width="113" x="102" y="7"/><ellipse cx="117" cy="26.8945" fill="#ADD1B2" rx="11" ry="11" style="stroke:#181818;stroke-width:1.0;"/><path d="M119.9688,32.5352 Q119.3906,32.832 118.75,32.9727 Q118.1094,33.1289 117.4063,33.1289 Q114.9063,33.1289 113.5781,31.4883 Q112.2656,29.832 112.2656,26.707 Q112.2656,23.582 113.5781,21.9258 Q114.9063,20.2695 117.4063,20.2695 Q118.1094,20.2695 118.75,20.4258 Q119.4063,20.582 119.9688,20.8789 L119.9688,23.5977 Q119.3438,23.0195 118.75,22.7539 Q118.1563,22.4727 117.5313,22.4727 Q116.1875,22.4727 115.5,23.5508 Q114.8125,24.6133 114.8125,26.707 Q114.8125,28.8008 115.5,29.8789 Q116.1875,30.9414 117.5313,30.9414 Q118.1563,30.9414 118.75,30.6758 Q119.3438,30.3945 119.9688,29.8164 L119.9688,32.5352 Z " fill="#000000"/><text fill="#D9B8FF" font-family="Helvetica" font-size="17" lengthAdjust="spacing" textLength="71" x="136" y="32.7798">resource</text></g><!--reverse link keypair to azure_compute_ssh_public_key--><g id="link_keypair_azure_compute_ssh_public_key"><path codeLine="35" d="M85.815,223.3732 C103.685,253.8932 129.34,297.69 147.24,328.25 " fill="none" id="keypair-backto-azure_compute_ssh_public_key" style="stroke:#FFAF37;stroke-width:2.0;"/><polygon fill="none" points="76.72,207.84,80.6372,226.4049,90.9927,220.3416,76.72,207.84" style="stroke:#FFAF37;stroke-width:2.0;"/></g><!--reverse link microsoft_resource to azure_compute_ssh_public_key--><g id="link_microsoft_resource_azure_compute_ssh_public_key"><path codeLine="36" d="M231.9895,223.3288 C213.9195,253.8488 187.97,297.69 169.88,328.25 " fill="none" id="microsoft_resource-backto-azure_compute_ssh_public_key" style="stroke:#FFAF37;stroke-width:2.0;"/><polygon fill="none" points="241.16,207.84,226.8266,220.272,237.1525,226.3856,241.16,207.84" style="stroke:#FFAF37;stroke-width:2.0;"/></g><!--reverse link resource to keypair--><g id="link_resource_keypair"><path codeLine="37" d="M138.185,62.5832 C120.315,93.1032 94.66,136.9 76.76,167.46 " fill="none" id="resource-backto-keypair" style="stroke:#FFAF37;stroke-width:2.0;"/><polygon fill="none" points="147.28,47.05,133.0073,59.5516,143.3628,65.6149,147.28,47.05" style="stroke:#FFAF37;stroke-width:2.0;"/></g><!--reverse link resource to microsoft_resource--><g id="link_resource_microsoft_resource"><path codeLine="38" d="M179.0105,62.5388 C197.0805,93.0588 223.03,136.9 241.12,167.46 " fill="none" id="resource-backto-microsoft_resource" style="stroke:#FFAF37;stroke-width:2.0;"/><polygon fill="none" points="169.84,47.05,173.8475,65.5956,184.1734,59.482,169.84,47.05" style="stroke:#FFAF37;stroke-width:2.0;"/></g><!--SRC=[ZP7DRi8m48JlUGfBd952KHkGUW6aghsWglGUEVQQM8djQDSfWhRlNYXG6OUV7ZtpUMVMBhK41gRnQsR0582KKALjmv4RDa5qgvch7RAUKbmDizXySjRV1ERS07k6-WEy5ZmctaijAWj4x2wmfbnKItIjbVln7hcbhGNM1zIivaGJxr4NhOUWZ1mN8wLYCXxQ6yf1zW0TpA44F21fcih1E4PkHbtT-uzOw0smGVXeS-UXKxCJyKjTRRaZWfATHO_-nOwlN4fjb-m-qDxsdT02dkYBaaktsj6ArnJ6a0S4vzSDp3fRmNWaLNOMVha49sBtT8nlMeHSEDDilpqdAlEcBMejyWhMx3D9lW_SzjXmZQ5aj417JlaSWLoB0aBtL3jUV_pgz_jNGvCpO_znAs8FUR7SdPty0000]--></g></svg>

<svg xmlns="http://www.w3.org/2000/svg" width="359" height="374" viewBox="0 0 359 374"><rect width="303" height="39.789" x="7" y="328.58" fill="#3D176E" rx="2.5" ry="2.5" style="stroke:#000d19;stroke-width:.5"/><circle cx="22" cy="348.474" r="11" fill="#ADD1B2" style="stroke:#181818;stroke-width:1"/><path d="M24.969 354.115q-.578.297-1.219.438-.64.156-1.344.156-2.5 0-3.828-1.64-1.312-1.657-1.312-4.782t1.312-4.781q1.328-1.656 3.828-1.656.703 0 1.344.156.656.156 1.219.453v2.719q-.625-.579-1.219-.844-.594-.281-1.219-.281-1.343 0-2.031 1.078-.687 1.062-.687 3.156t.687 3.172q.688 1.062 2.031 1.062.625 0 1.219-.265.594-.281 1.219-.86z"/><text x="41" y="354.36" fill="#D9B8FF" font-family="Helvetica" font-size="17" textLength="261">azure_compute_ssh_public_key</text><rect width="104" height="39.789" x="13.5" y="167.79" fill="#3D176E" rx="2.5" ry="2.5" style="stroke:#000d19;stroke-width:.5"/><circle cx="28.5" cy="187.685" r="11" fill="#ADD1B2" style="stroke:#181818;stroke-width:1"/><path d="M31.469 193.325q-.578.297-1.219.438-.64.156-1.344.156-2.5 0-3.828-1.64-1.312-1.657-1.312-4.782t1.312-4.781q1.328-1.656 3.828-1.656.703 0 1.344.156.656.156 1.219.453v2.719q-.625-.578-1.219-.844-.594-.281-1.219-.281-1.343 0-2.031 1.078-.687 1.062-.687 3.156t.687 3.172q.688 1.062 2.031 1.062.625 0 1.219-.265.594-.281 1.219-.86z"/><text x="47.5" y="193.57" fill="#D9B8FF" font-family="Helvetica" font-size="17" textLength="62">keypair</text><rect width="200" height="39.789" x="152.5" y="167.79" fill="#3D176E" rx="2.5" ry="2.5" style="stroke:#000d19;stroke-width:.5"/><circle cx="167.5" cy="187.685" r="11" fill="#ADD1B2" style="stroke:#181818;stroke-width:1"/><path d="M170.469 193.325q-.578.297-1.219.438-.64.156-1.344.156-2.5 0-3.828-1.64-1.312-1.657-1.312-4.782t1.312-4.781q1.328-1.656 3.828-1.656.703 0 1.344.156.656.156 1.219.453v2.719q-.625-.578-1.219-.844-.594-.281-1.219-.281-1.344 0-2.031 1.078-.687 1.062-.687 3.156t.687 3.172q.688 1.062 2.031 1.062.625 0 1.219-.265.594-.281 1.219-.86z"/><text x="186.5" y="193.57" fill="#D9B8FF" font-family="Helvetica" font-size="17" textLength="158">microsoft_resource</text><rect width="113" height="39.789" x="102" y="7" fill="#3D176E" rx="2.5" ry="2.5" style="stroke:#000d19;stroke-width:.5"/><circle cx="117" cy="26.895" r="11" fill="#ADD1B2" style="stroke:#181818;stroke-width:1"/><path d="M119.969 32.535q-.578.297-1.219.438-.64.156-1.344.156-2.5 0-3.828-1.64-1.312-1.657-1.312-4.782t1.312-4.781q1.328-1.656 3.828-1.656.703 0 1.344.156.656.156 1.219.453v2.719q-.625-.578-1.219-.844-.594-.281-1.219-.281-1.344 0-2.031 1.078-.687 1.062-.687 3.156t.687 3.172q.688 1.062 2.031 1.062.625 0 1.219-.265.594-.281 1.219-.86z"/><text x="136" y="32.78" fill="#D9B8FF" font-family="Helvetica" font-size="17" textLength="71">resource</text><g fill="none"><path d="M85.815 223.373c17.87 30.52 43.525 74.317 61.425 104.877" style="stroke:#ffaf37;stroke-width:2"/><path d="m76.72 207.84 3.917 18.565 10.356-6.063z" style="stroke:#ffaf37;stroke-width:2"/></g><path fill="none" d="M231.99 223.329c-18.07 30.52-44.02 74.361-62.11 104.921m71.28-120.41-14.333 12.432 10.326 6.114z" style="stroke:#ffaf37;stroke-width:2"/><g fill="none"><path d="M138.185 62.583C120.315 93.103 94.66 136.9 76.76 167.46" style="stroke:#ffaf37;stroke-width:2"/><path d="m147.28 47.05-14.273 12.502 10.356 6.063z" style="stroke:#ffaf37;stroke-width:2"/></g><g fill="none"><path d="M179.01 62.539c18.07 30.52 44.02 74.361 62.11 104.921" style="stroke:#ffaf37;stroke-width:2"/><path d="m169.84 47.05 4.007 18.546 10.326-6.114z" style="stroke:#ffaf37;stroke-width:2"/></g></svg>
